X:1
T:Elizabethtown, CM
T:Elizabethtown, CM
T:George Kingsley, 1838
T:Public Domain Courtesy of the Cyber Hymnal™
C:George Kingsley, 1838
Z:Public Domain
Z:Courtesy of the Cyber Hymnal™
%%score ( 1 2 ) ( 3 4 )
L:1/8
Q:1/4=105
M:3/4
K:Eb
V:1 treble 
V:2 treble 
V:3 bass 
V:4 bass 
V:1
 [EG]2 [EG][EG] [EG][EG] | ([GB]2 [EG]2) E2 | [DF]4 [DF]2 | [CE]3 [CE] [CE][DF] | [EG]4 [DF]2 | %5
 [EG][FA] [GB]2 [EG]2 | [Ee]4 [Ac]2 | [GB]4 [EG]2 | [GB][EG] E2 [B,F]2 | [B,E]6 |] %10
V:2
 x6 | x4 E2 | x6 | x6 | x6 | x6 | x6 | x6 | x2 E2 x2 | x6 |] %10
V:3
 [E,B,]2 [E,B,][E,B,] [E,B,][E,B,] | (E2 B,2) [E,G,]2 | [B,,B,]4 [B,,A,]2 | %3
 [C,G,]3 [C,G,] [C,G,][B,,B,] | [E,B,]4 [B,,B,]2 | [E,B,][E,B,] [E,B,]2 [E,B,]2 | [G,B,]4 [A,E]2 | %7
 [E,E]4 [E,B,]2 | [E,E][E,B,] [B,,G,]2 [B,,A,]2 | [E,G,]6 |] %10
V:4
 x6 | E,4 x2 | x6 | x6 | x6 | x6 | x6 | x6 | x6 | x6 |] %10

